svgs/inure.svg

<svg xmlns="http://www.w3.org/2000/svg" viewBox="0 0 192 192"><path d="M91.812 174.114c-6.007-.9-14.987-4.676-20.337-8.552l-2.484-1.799 3.023-5.238c1.663-2.882 7.634-13.307 13.271-23.167 5.636-9.861 11.202-19.394 12.368-21.185 1.166-1.792 6.236-10.502 11.266-19.357 5.03-8.855 11.45-20.019 14.266-24.81 9.933-16.898 10.593-18.677 8.543-22.997-1.441-3.037-4.134-4.325-8.222-3.932-2.693.258-3.561.678-5.017 2.422-.969 1.16-6.478 10.415-12.244 20.567-5.765 10.152-11.113 19.329-11.883 20.393-.771 1.065-2.413 3.823-3.65 6.13-1.237 2.306-2.837 5.21-3.556 6.452-.719 1.242-2.741 4.726-4.493 7.742-1.752 3.017-4.167 7.372-5.365 9.678-1.199 2.307-2.678 4.775-3.288 5.485-.61.709-4.648 7.605-8.973 15.324-4.325 7.718-8.054 14.014-8.287 13.991-.924-.092-6.934-7.755-11.352-14.475C25.691 106.811 16 82.759 16 63.82c0-12.195 3.054-20.002 10.956-28.007 12.288-12.449 34.039-18.069 69.93-18.069 7.281 0 13.371.218 13.532.484.285.47-11.403 21.827-15.464 28.256-1.111 1.759-4.913 8.279-8.449 14.489-12.474 21.904-12.332 21.546-9.808 24.754 1.338 1.701 4.196 2.259 6.683 1.305.565-.217 3.245-4.354 5.955-9.194 2.71-4.84 6.44-11.267 8.29-14.284 1.849-3.016 7.058-12.017 11.574-20.001 4.516-7.985 9.487-16.534 11.047-18.999 1.56-2.465 2.916-4.721 3.013-5.014.222-.664 14.834 2.26 20.493 4.101 2.306.751 6.999 2.793 10.429 4.54 5.108 2.601 7.09 4.074 10.968 8.152 5.561 5.845 7.84 9.8 9.587 16.63 4.495 17.575-3.094 43.725-21.237 73.177-8.629 14.007-12.293 19.154-18.323 25.738-11.811 12.897-19.46 18.318-29.77 21.095-3.622.976-10.719 1.571-13.594 1.141Z"/></svg>

<svg
    xmlns="http://www.w3.org/2000/svg"
    viewBox="0 0 192 192"
    id="vector">
    <path
        id="path"
        d="M 91.812 174.114 C 85.805 173.214 76.825 169.438 71.475 165.562 L 68.991 163.763 L 72.014 158.525 C 73.677 155.643 79.648 145.218 85.285 135.358 C 90.921 125.497 96.487 115.964 97.653 114.173 C 98.819 112.381 103.889 103.671 108.919 94.816 C 113.949 85.961 120.369 74.797 123.185 70.006 C 133.118 53.108 133.778 51.329 131.728 47.009 C 130.287 43.972 127.594 42.684 123.506 43.077 C 120.813 43.335 119.945 43.755 118.489 45.499 C 117.52 46.659 112.011 55.914 106.245 66.066 C 100.48 76.218 95.132 85.395 94.362 86.459 C 93.591 87.524 91.949 90.282 90.712 92.589 C 89.475 94.895 87.875 97.799 87.156 99.041 C 86.437 100.283 84.415 103.767 82.663 106.783 C 80.911 109.8 78.496 114.155 77.298 116.461 C 76.099 118.768 74.62 121.236 74.01 121.946 C 73.4 122.655 69.362 129.551 65.037 137.27 C 60.712 144.988 56.983 151.284 56.75 151.261 C 55.826 151.169 49.816 143.506 45.398 136.786 C 25.691 106.811 16 82.759 16 63.82 C 16 51.625 19.054 43.818 26.956 35.813 C 39.244 23.364 60.995 17.744 96.886 17.744 C 104.167 17.744 110.257 17.962 110.418 18.228 C 110.703 18.698 99.015 40.055 94.954 46.484 C 93.843 48.243 90.041 54.763 86.505 60.973 C 74.031 82.877 74.173 82.519 76.697 85.727 C 78.035 87.428 80.893 87.986 83.38 87.032 C 83.945 86.815 86.625 82.678 89.335 77.838 C 92.045 72.998 95.775 66.571 97.625 63.554 C 99.474 60.538 104.683 51.537 109.199 43.553 C 113.715 35.568 118.686 27.019 120.246 24.554 C 121.806 22.089 123.162 19.833 123.259 19.54 C 123.481 18.876 138.093 21.8 143.752 23.641 C 146.058 24.392 150.751 26.434 154.181 28.181 C 159.289 30.782 161.271 32.255 165.149 36.333 C 170.71 42.178 172.989 46.133 174.736 52.963 C 179.231 70.538 171.642 96.688 153.499 126.14 C 144.87 140.147 141.206 145.294 135.176 151.878 C 123.365 164.775 115.716 170.196 105.406 172.973 C 101.784 173.949 94.687 174.544 91.812 174.114 Z"
        fill="#000000"
        stroke-width="12"/>
</svg>
